X: 36
M: 4/4
L: 1/8
K: G
(3D>EF |\
g2d2 e2^/cA | dBAG FDD2 | G3A ^/cAcA | EAA2 A2ef |
g2d2 e2^/cA | cBAG FDD2 | G2Bd e^/cAF | G3G G2 |]


